src/assets/svg/inventory-1.svg

<svg width="39" height="39" viewBox="0 0 39 39" fill="none" xmlns="http://www.w3.org/2000/svg">
<path d="M20.375 37H17.5557C10.2232 37 6.557 37 4.2785 34.8038C2 32.6058 2 29.0707 2 22.0007V12.5H37V16.875" stroke="#00C700" stroke-width="2.5" stroke-linecap="round" stroke-linejoin="round"/>
<path d="M30 26.5H30.0158M2 12.5L3.6835 8.461C4.98725 5.3285 5.64 3.764 6.963 2.882C8.286 2 9.98 2 13.375 2H25.625C29.0183 2 30.714 2 32.037 2.882C33.36 3.764 34.0128 5.33025 35.3165 8.461L37 12.5M19.5 12.5V2M16 19.5H19.5M30 19.5C26.1325 19.5 23 22.6658 23 26.57C23 28.803 23.875 30.539 25.625 32.0913C26.8587 33.1833 28.3532 34.9998 29.2492 36.4715C29.6797 37.1768 30.2888 37.1768 30.7508 36.4715C31.6923 35.0278 33.1413 33.1833 34.375 32.0913C36.125 30.539 37 28.803 37 26.57C37 22.6675 33.8675 19.5 30 19.5Z" stroke="#00C700" stroke-width="2.5" stroke-linecap="round" stroke-linejoin="round"/>
</svg>

<svg xmlns="http://www.w3.org/2000/svg" width="39" height="39" fill="none"><path stroke="#00C700" stroke-linecap="round" stroke-linejoin="round" stroke-width="2.5" d="M20.375 37h-2.82c-7.332 0-10.998 0-13.276-2.196C2 32.606 2 29.07 2 22v-9.5h35v4.375"/><path stroke="#00C700" stroke-linecap="round" stroke-linejoin="round" stroke-width="2.5" d="M30 26.5h.016M2 12.5l1.684-4.039C4.986 5.328 5.64 3.764 6.963 2.882S9.98 2 13.375 2h12.25c3.393 0 5.089 0 6.412.882s1.976 2.448 3.28 5.579L37 12.5m-17.5 0V2M16 19.5h3.5m10.5 0c-3.867 0-7 3.166-7 7.07 0 2.233.875 3.969 2.625 5.521 1.234 1.092 2.728 2.909 3.624 4.38.43.706 1.04.706 1.502 0 .941-1.443 2.39-3.288 3.624-4.38C36.125 30.54 37 28.803 37 26.57c0-3.902-3.133-7.07-7-7.07"/></svg>
